static/elements/www_1color.svg

<svg viewBox="0 0 672 672" xmlns="http://www.w3.org/2000/svg"><path d="m336 0c-185.568 0-336 150.432-336 336s150.432 336 336 336 336-150.432 336-336-150.432-336-336-336zm.333 574.667c-131.812 0-238.666-106.855-238.666-238.667s106.854-238.667 238.666-238.667 238.667 106.855 238.667 238.667-106.855 238.667-238.667 238.667z" fill="#004153"/><g fill="none" stroke="#004153" stroke-miterlimit="10" stroke-width="10"><path d="m337.812 576.667c-3.333-7.667 1.08-476.523 1.08-476.523 302.667 226.333 2.253 484.189-1.08 476.523z"/><path d="m337.812 97.333c3.353 7.712-1.479 477.334-1.479 477.334-304.433-227.654-1.874-485.045 1.479-477.334z"/><path d="m237.5 553.622c-5.156 4.4 95.431-73.445 200.627 0"/><path d="m236.017 117.667c-3.29-3.117 106.9 72.644 200.627 0"/></g></svg>

<svg xmlns="http://www.w3.org/2000/svg" viewBox="0 0 672 672">
  <defs>
    <style>
      .cls-1 {
        fill: #004153;
      }

      .cls-2 {
        fill: none;
        stroke: #004153;
        stroke-miterlimit: 10;
        stroke-width: 10px;
      }
    </style>
  </defs>
  <g id="Layer_2" data-name="Layer 2">
    <g id="Layer_1-2" data-name="Layer 1">
      <g>
        <path class="cls-1" d="M336,0C150.432,0,0,150.432,0,336S150.432,672,336,672,672,521.568,672,336,521.568,0,336,0Zm.333,574.667C204.521,574.667,97.667,467.812,97.667,336S204.521,97.333,336.333,97.333,575,204.188,575,336,468.145,574.667,336.333,574.667Z"/>
        <path class="cls-2" d="M337.812,576.667c-3.333-7.667,1.08-476.523,1.08-476.523C641.559,326.477,341.145,584.333,337.812,576.667Z"/>
        <path class="cls-2" d="M337.812,97.333c3.353,7.712-1.479,477.334-1.479,477.334C31.9,347.013,334.459,89.622,337.812,97.333Z"/>
        <path class="cls-2" d="M237.5,553.622c-5.156,4.4,95.431-73.445,200.627,0"/>
        <path class="cls-2" d="M236.017,117.667c-3.29-3.117,106.9,72.644,200.627,0"/>
      </g>
    </g>
  </g>
</svg>
